X:14
T: Kickin' Grass
C: Jesse Brock, from CD "Kickin' Grass"
S: MandoZine TablEdit Archives
Z: TablEdited by John Strong for MandoZine
Z: ABC file with chords by Wendy Anthony
L: 1/8
Q: 324
M: 4/4
K: B
z2 (3FFF =A2 ^A2 |"B" AB BB Bc de |"B" ef fg f2 g2 |"A" g=a =ab =ag eg |
"B" ef ff zg fe |"B" df ed B2 Bc |"B" df fg fd B2 |"F#" d=d ^dg fd c2 |"B" B2 F=A =A2 ^A2 |
"B" [=fA][^fB] BB Bc de |"B" ef fg f2 g2 |"A" g=a =ab =ag eg |"B" ef ff zg fe |
"B" df ed B2 Bc |"B" df fg fd B2 |"F#" d=d ^dg fd cd |"B" B2 B2 eg =ag |
"E" =ag ec Bd eg |"E" b2 bc' bg eg |"A" =ag =ab =ag eg |"B" ef ff zg =ag |
"E" =ag ec Bd eg |"E" bg bc' bg eg |"A" =ag =ab =ag eg |"F#" ef ff =a^a f2 |"F#" a2 aa zb g2 |
"B" dg fd B2 Bc |"B" df fd f2 g2 |"A" g=a =ab =ag eg |"B" ef ff zg fe |
"B" df ed B2 Bc |"B" df fg fd B2 |"F#" d=d ^dg fd cd |"B" f2 d2 B2 F2 |"B" =A2 F2 E2 D2 |"B" B,8 |
